X:253
T:Triple Time
S:Bruce & Emmett's Drummers and Fifers Guide (1862), p. 25
M:3/4
L:1/4
K:D
A/F/|"_1"D"_2"F"_3"A|"_1 2"d2 "_3"f/e/|"_1"d"_2"F"_3"G|"_1 2"A2"_3"A|"_1 2"f2 "_3"e/d/|"_1"c"_2"B"_3"c|"_1"d "_2"A/B/"_3"A/G/|"_1"F"_2"D:|
d/e/|"_1"f"_2"f"_3"g|"_1 2"a2 "_3"g/f/|"_1"e"_2"e"_3"f|"_1 2"g2 "_3"f/e/|"_1 2"f>e "_3"d|"_1"c"_2"B"_3"c|"_1"d"_2"F"_3"G|"_1"A"_2"z"_3"B/c/|
"_1"d "_2"d/e/"_3"d/c/|"_1"B"_2"B"_3"d|"_1"e "_2"g/f/"_3"e/d/|"_1 2"c2"_3"A|"_1"d/c/"_2"d/e/"_3"f/g/|"_1 2"a>f"_3"d|"_1"f"_2"g"_3"e|"_1 2"d2:||
